school/img/country/BI.svg

<svg width="13" height="12" viewBox="0 0 13 12" fill="none" xmlns="http://www.w3.org/2000/svg">
<rect width="13" height="12" rx="2" fill="white"/>
<mask id="mask0" mask-type="alpha" maskUnits="userSpaceOnUse" x="0" y="0" width="13" height="12">
<rect width="13" height="12" rx="2" fill="white"/>
</mask>
<g mask="url(#mask0)">
<rect width="13" height="12" fill="#E4233B"/>
<path fill-rule="evenodd" clip-rule="evenodd" d="M0 0L5.57143 6L0 12V0Z" fill="#34CD4E"/>
<path fill-rule="evenodd" clip-rule="evenodd" d="M13 0L7.42857 6L13 12V0Z" fill="#34CD4E"/>
<path fill-rule="evenodd" clip-rule="evenodd" d="M5.12482 3.8363L-0.595386 -1.14984L-1.28772 0.176621L4.43204 5.16238C4.36796 5.42687 4.33342 5.70824 4.33342 6.00004C4.33342 6.29183 4.36796 6.5732 4.43204 6.83769L-1.2877 11.8234L-0.59537 13.1499L5.12481 8.16377C5.49891 8.56134 5.97793 8.80004 6.50009 8.80004C7.02223 8.80004 7.50124 8.56135 7.87533 8.1638L13.5955 13.1499L14.2878 11.8234L8.56812 6.83774C8.63221 6.57324 8.66675 6.29185 8.66675 6.00004C8.66675 5.70822 8.63221 5.42684 8.56812 5.16233L14.2878 0.176619L13.5955 -1.14984L7.87533 3.83627C7.50123 3.43872 7.02223 3.20004 6.50009 3.20004C5.97793 3.20004 5.49892 3.43874 5.12482 3.8363Z" fill="white"/>
<path fill-rule="evenodd" clip-rule="evenodd" d="M6.49997 5.2L6.06224 5.36568L6.19045 4.8L6.06224 4.23431L6.49997 4.4L6.9377 4.23431L6.80949 4.8L6.9377 5.36568L6.49997 5.2ZM5.5714 7.20001L5.13367 7.36569L5.26188 6.80001L5.13367 6.23432L5.5714 6.40001L6.00913 6.23432L5.88092 6.80001L6.00913 7.36569L5.5714 7.20001ZM6.99081 7.36569L7.42854 7.20001L7.86628 7.36569L7.73807 6.80001L7.86628 6.23432L7.42854 6.40001L6.99081 6.23432L7.11902 6.80001L6.99081 7.36569Z" fill="#DF2239"/>
</g>
</svg>

<svg width="13" height="12" fill="none" xmlns="http://www.w3.org/2000/svg"><rect width="13" height="12" rx="2" fill="#fff"/><mask id="a" maskUnits="userSpaceOnUse" x="0" y="0" width="13" height="12"><rect width="13" height="12" rx="2" fill="#fff"/></mask><g mask="url(#a)"><path fill="#E4233B" d="M0 0h13v12H0z"/><path fill-rule="evenodd" clip-rule="evenodd" d="M0 0l5.571 6L0 12V0zm13 0L7.429 6 13 12V0z" fill="#34CD4E"/><path fill-rule="evenodd" clip-rule="evenodd" d="M5.125 3.836L-.595-1.15-1.288.177l5.72 4.985A3.56 3.56 0 004.333 6c0 .292.035.573.099.838l-5.72 4.985.693 1.327 5.72-4.986c.374.397.853.636 1.375.636s1.001-.239 1.375-.636l5.72 4.986.693-1.327-5.72-4.985A3.56 3.56 0 008.667 6a3.56 3.56 0 00-.099-.838l5.72-4.985-.693-1.327-5.72 4.986C7.501 3.44 7.022 3.2 6.5 3.2s-1.001.239-1.375.636z" fill="#fff"/><path fill-rule="evenodd" clip-rule="evenodd" d="M6.5 5.2l-.438.166.128-.566-.128-.566.438.166.438-.166-.129.566.129.566L6.5 5.2zm-.929 2l-.437.166.128-.566-.128-.566.437.166.438-.166-.128.566.128.566-.438-.166zm1.42.166l.438-.166.437.166-.128-.566.128-.566-.437.166-.438-.166.128.566-.128.566z" fill="#DF2239"/></g></svg>
